-----BEGIN PGP PUBLIC KEY BLOCK-----

mQINBGq9L60BEADWrCcDflD3mh1XxUf0Y6KY99ZL9wIhQLbrT89+b5D8FdsamqFz
Zz35PkCGtvZqIFQ8Ci9oHLi9b2dcyv3WoJ0XCaWwTfulNvlbVJ1UbT5D66qyG/MA
I/ayJQwB0xtGyghTQgHEFWNWS0/EfcDzbzsc2Yw9RhmjZPJQGzfXy27KaFBZ1mrn
+anZ/7LAs/U6dIfKVJiYGlE7l0ipt1H/GZGZdjzF5BdlUW31Rf298qZc2l4gvAa1
OHHOxZP+iRXEXKR3xKcRz6e8bvrHgtKZuP0P0JuGS1UZFDmXE46wQMZd30jmZgiL
QW2r7/2glZrp7vmcqbLNBlXJpni5iE5Jgq7jY0NvQECi5122q19jOSOHk1mYZ33G
KCiHhUj5Cj4jPoiQa4mDwk5wMeRwB8/AR2de69j0bEPbWulFsbK6r0kDNRdQfBsC
4oDM03aTvoWUcanaHhHMdnQvyZQs24vyFrQOAzd2/msA3Dp6aZsiAESmnFUs4AG+
Z4FJ6eWfPRQ2IGaXKc1uJna3dW9/h3TTL6fm6ZHYgKZTeCQIr8xBTxwBLEsVZbsu
oUdI+iIWx5I2Qqf9UtoCiHyRCqgNmqpCxK6Zk971LxjJOwTwbRWqdc3AsDXPmSlw
Wt9gGffYHUsjpoQq7Uz2kS2V0QMH1QkS0C3Q/1VAdv5p25yclAvz1RXYawARAQAB
tBdCaXNjdWl0IFdhbGxldCByZWxlYXNlc4kCcwQTAQgAXRYhBNcUMy5hAcHarGDm
RCAvH6OY3s76BQJqvS+tGxSAAAAAAAQADm1hbnUyLDIuNSsxLjEyLDAsMwIbAwUJ
BaOagAULCQgHAgIiAgYVCgkICwIEFgIDAQIeBwIXgAAKCRAgLx+jmN7O+pnJD/4k
P1BVazMyAW/Briw6knonntLDz4gulBB5SGivexY/xw62/8Z6SPN+6CMM32ok2Cn3
TOdDfGLTVPHypXnEIdTj1Uot2G/A+7Gak8jRwralvsDhYLARJtOaLGlW0QVjOHNA
L9JLyzpppD6b/41PzSKuXrPIWZToRP0SIAImCOxigHvNrumq5gVlOW4qJ0Lj9waX
6mZrE2l+DE0E3uIs1yl1DedS2kraRbzF+aWU6rJMBeEZQCKnClM3/Z/N/9qZdQzd
K06TVYZBFuUKKhi+AENrxDoA4rfopfcGDW/h4LivC2LWhBBUsGA1BE6fGZYLZX85
aq/8C8qOC32yWvzuaowHMHQVeOicYJBSeF6uX3+0fXFW3qfJ3hq0er9pbwmh+RJq
vUKPTX7UreVpi3hC+3NamFCeTpmsQb5XUPGivYvI+xS/DfTmyY1COv8WI3IMwQ8f
235zhlpZA7Q7HTwlrZ16QufbUtxBIW6MXzpOLmuv4g3F6I2rghYobAV42Y143oCi
i15tqnCCM1bMHThl8JnK8efZp6Bn7ao7Pk0xVttZVW3G+0y6DNuwbQBWwJp569hZ
I191OTzH5/tsyuyg0okdavwfYbumDUYdboDkuPDpJWmmuz2407/XJDH9bmplj+WL
azhPrMZQbWmqaKG/564xZl82TOWH4zhH6Ld/419Ckw==
=Ds5K
-----END PGP PUBLIC KEY BLOCK-----
